icons/FileData_filled.svg

<svg width="24" height="24" viewBox="0 0 24 24" fill="none" xmlns="http://www.w3.org/2000/svg">
<path fill-rule="evenodd" clip-rule="evenodd" d="M13.25,2.25v5.25c0,0.69036 0.5596,1.25 1.25,1.25h5.25v11.25c0,0.9665 -0.7835,1.75 -1.75,1.75h-12c-0.9665,0 -1.75,-0.7835 -1.75,-1.75v-16c0,-0.9665 0.7835,-1.75 1.75,-1.75zM19.2374,7.17678c0.0238,0.0238 0.0469,0.04822 0.0692,0.07322h-4.5566v-4.55657c0.025,0.02228 0.0494,0.04533 0.0732,0.06913zM9.75,13c0,-0.4142 -0.33579,-0.75 -0.75,-0.75c-0.41421,0 -0.75,0.3358 -0.75,0.75v4.5c0,0.4142 0.33579,0.75 0.75,0.75c0.41421,0 0.75,-0.3358 0.75,-0.75zM11.25,11v6.5c0,0.4142 0.3358,0.75 0.75,0.75c0.4142,0 0.75,-0.3358 0.75,-0.75v-6.5c0,-0.4142 -0.3358,-0.75 -0.75,-0.75c-0.4142,0 -0.75,0.3358 -0.75,0.75zM15.75,14c0,-0.4142 -0.3358,-0.75 -0.75,-0.75c-0.4142,0 -0.75,0.3358 -0.75,0.75v3.5c0,0.4142 0.3358,0.75 0.75,0.75c0.4142,0 0.75,-0.3358 0.75,-0.75z" fill="#002B51"/>
</svg>

<svg width="24" height="24" viewBox="0 0 24 24" fill="none" xmlns="http://www.w3.org/2000/svg">
<path fill-rule="evenodd" clip-rule="evenodd" d="M6 2.25C5.0335 2.25 4.25 3.0335 4.25 4V20C4.25 20.9665 5.0335 21.75 6 21.75H18C18.9665 21.75 19.75 20.9665 19.75 20V8.75H14.5C13.8096 8.75 13.25 8.19036 13.25 7.5V2.25H6ZM19.2374 7.17678C19.2612 7.20058 19.2843 7.225 19.3066 7.25H14.75V2.69343C14.775 2.71571 14.7994 2.73876 14.8232 2.76256L19.2374 7.17678ZM9.75 13C9.75 12.5858 9.41421 12.25 9 12.25C8.58579 12.25 8.25 12.5858 8.25 13V17.5C8.25 17.9142 8.58579 18.25 9 18.25C9.41421 18.25 9.75 17.9142 9.75 17.5V13ZM12 10.25C12.4142 10.25 12.75 10.5858 12.75 11V17.5C12.75 17.9142 12.4142 18.25 12 18.25C11.5858 18.25 11.25 17.9142 11.25 17.5V11C11.25 10.5858 11.5858 10.25 12 10.25ZM15.75 14C15.75 13.5858 15.4142 13.25 15 13.25C14.5858 13.25 14.25 13.5858 14.25 14V17.5C14.25 17.9142 14.5858 18.25 15 18.25C15.4142 18.25 15.75 17.9142 15.75 17.5V14Z" fill="#002B51"/>
</svg>
